X:1
T: Glasgow Peggy
P:24 bar jig
R:Jig
Q:180
K:D
M:6/8
L:1/16
B2|A4F2 F2E2D2|G4G2 G4B2|A4F2 F2E2D2|E6 E4B2|A4F2 F2E2D2|G4G2 G4B2|A4G2 F4E2|F6 D4A2|
d4d2 d2c2d2|B4B2 B4d2|A4F2 F2E2D2|E6 E4c2|d4d2 d2c2d2|B4B2 B4d2|A4G2 F4E2|F6 D4A2|
d4d2 d2c2d2|B4B2 B4d2|A4F2 F2E2D2|E6 E4c2|d4d2 d2c2d2|B4B2 B4d2|A4G2 F4E2|F6 D4||
